assets/icons/utility/page.svg

<?xml version="1.0"?><svg xmlns="http://www.w3.org/2000/svg" width="52" height="52" viewBox="0 0 52 52"><path fill="#fff" d="m44.4 19h-11.2c-2.6 0-4.2-1.6-4.2-4.2v-11.2c0-0.9-0.7-1.6-1.6-1.6h-16.6c-2.6 0-4.8 2.2-4.8 4.8v38.4c0 2.6 2.2 4.8 4.8 4.8h30.4c2.6 0 4.8-2.2 4.8-4.8v-24.6c0-0.9-0.7-1.6-1.6-1.6z m1.3-6.1l-10.6-10.6c-0.2-0.2-0.6-0.3-0.9-0.3-0.6 0-1.2 0.5-1.2 1.1v8.5c0 1.8 1.6 3.4 3.4 3.4h8.5c0.6 0 1.1-0.6 1.1-1.2 0-0.3-0.1-0.7-0.3-0.9z"></path></svg>

<svg xmlns="http://www.w3.org/2000/svg" x="0px" y="0px"
	 width="52px" height="52px" viewBox="0 0 52 52" enable-background="new 0 0 52 52" xml:space="preserve">
<g>
	<g>
		<path fill="#FFFFFF" d="M44.4,19H33.2c-2.6,0-4.2-1.6-4.2-4.2V3.6C29,2.7,28.3,2,27.4,2H10.8C8.2,2,6,4.2,6,6.8v38.4
			c0,2.6,2.2,4.8,4.8,4.8h30.4c2.6,0,4.8-2.2,4.8-4.8V20.6C46,19.7,45.3,19,44.4,19z"/>
	</g>
	<g>
		<path fill="#FFFFFF" d="M45.7,12.9L35.1,2.3C34.9,2.1,34.5,2,34.2,2l0,0C33.6,2,33,2.5,33,3.1v8.5c0,1.8,1.6,3.4,3.4,3.4h8.5
			c0.6,0,1.1-0.6,1.1-1.2l0,0C46,13.5,45.9,13.1,45.7,12.9z"/>
	</g>
</g>
</svg>
